svgs/sharp-duotone-light/square-arrow-down-left.svg

<svg xmlns="http://www.w3.org/2000/svg" viewBox="0 0 448 512"><!--! Font Awesome Pro 7.1.0 by @fontawesome - https://fontawesome.com License - https://fontawesome.com/license (Commercial License) Copyright 2025 Fonticons, Inc. --><path opacity=".4" fill="currentColor" d="M32 64l0 384 384 0 0-384-384 0zm96 128l32 0 0 105.4 132.7-132.7 11.3-11.3 22.6 22.6-11.3 11.3-132.7 132.7 105.4 0 0 32-160 0 0-160z"/><path fill="currentColor" d="M32 448l0-384 384 0 0 384-384 0zM0 480l448 0 0-448-448 0 0 448zM272 320l-89.4 0 132.7-132.7 11.3-11.3-22.6-22.6-11.3 11.3-132.7 132.7 0-105.4-32 0 0 160 160 0 0-32-16 0z"/></svg>

<svg xmlns="http://www.w3.org/2000/svg" viewBox="0 0 448 512"><!--! Font Awesome Pro 6.7.2 by @fontawesome - https://fontawesome.com License - https://fontawesome.com/license (Commercial License) Copyright 2024 Fonticons, Inc. --><defs><style>.fa-secondary{opacity:.4}</style></defs><path class="fa-secondary" d="M32 64l0 384 384 0 0-384L32 64zm96 112l32 0 0 16 0 105.4L292.7 164.7 304 153.4 326.6 176l-11.3 11.3L182.6 320l97.4 0 16 0 0 32-16 0-136 0-16 0 0-16 0-144 0-16z"/><path class="fa-primary" d="M32 448L32 64l384 0 0 384L32 448zM0 480l32 0 384 0 32 0 0-32 0-384 0-32-32 0L32 32 0 32 0 64 0 448l0 32zM144 352l136 0 16 0 0-32-16 0-97.4 0L315.3 187.3 326.6 176 304 153.4l-11.3 11.3L160 297.4 160 192l0-16-32 0 0 16 0 144 0 16 16 0z"/></svg>
